src/symbolic/status/user-status-pending-symbolic.svg

<svg xmlns="http://www.w3.org/2000/svg" width="16" height="16"><path d="M3 6c-1.11 0-2 .89-2 2a2 2 0 1 0 4 0c0-1.11-.89-2-2-2zm5 0c-1.11 0-2 .89-2 2a2 2 0 1 0 4 0c0-1.11-.89-2-2-2zm5 0c-1.11 0-2 .89-2 2a2 2 0 1 0 4 0c0-1.11-.89-2-2-2z" fill="#444"/><path d="M8 2C6.34 2 5 3.34 5 5h6c0-1.66-1.34-3-3-3zm-4.16 9C2.01 12.19 2 14 2 14v1h12v-1s-.01-1.81-1.84-3z" opacity=".3" fill="#444"/></svg>

<svg xmlns="http://www.w3.org/2000/svg" width="16" height="16" version="1.1">
 <path style="fill:#444444" d="M 3,6 C 1.89,6 1,6.89 1,8 1,9.1 1.89,10 3,10 4.11,10 5,9.1 5,8 5,6.89 4.11,6 3,6 Z M 8,6 C 6.89,6 6,6.89 6,8 6,9.1 6.89,10 8,10 9.11,10 10,9.1 10,8 10,6.89 9.11,6 8,6 Z M 13,6 C 11.89,6 11,6.89 11,8 11,9.1 11.89,10 13,10 14.11,10 15,9.1 15,8 15,6.89 14.11,6 13,6 Z"/>
 <path style="opacity:0.3;fill:#444444" d="M 8,2 C 6.34,2 5,3.34 5,5 5,5 5,5 5,5 H 11 C 11,5 11,5 11,5 11,3.34 9.66,2 8,2 Z M 3.84,11 C 2.01,12.19 2,14 2,14 V 15 H 14 V 14 C 14,14 13.99,12.19 12.16,11 Z"/>
</svg>
